X:2844
T:Charles O'Connor
S:Charlie Saksena
R:Jig
O:Ireland
M:6/8
C:Turlough O'Carolan
K:D
A|\
d2A d2A|BAG FGA|Bcd ecA|dfa a2g|\
fef BcB|ede Ac/B/A|
dcB AFA|d3 d2::\
c/B/|\
AB/A/D FAD|BGB AFD|AB/A/D FAD|GEe c2A|\
f>ef fef|fef fdB|\
cde ede|ede ecA|\
dcB AFE|FAd f2e|dcB AFA|d3 d2:|


